X:1
T:Comes a train of little ladies
T:Comes a train of little ladies
T:The Mikado
T:Arthur Sullivan
C:Arthur Sullivan
%%score [ 1 2 ] { ( 3 6 ) | ( 4 5 ) }
L:1/8
Q:1/4=90
M:3/4
K:G
V:1 treble nm="Soprano"
V:2 treble nm="Alto"
V:3 treble nm="Piano"
V:6 treble 
V:4 bass 
V:5 bass 
V:1
"^Allegretto grazioso" z6 | z6 | z6 | z6 | z6 | z6 | z6 | z6 | z6 | %9
w: |||||||||
 (B/d/) (g/d/) (B/c/) (A/c/) (B/c/) (A/c/) | B2 d4 | (B/d/) (g/d/) (B/c/) (A/c/) (B/c/) (A/c/) | %12
w: Comes _ a _ train _ of _ lit- * tle _|la- dies|From _ scho- * las- * tic _ tram- * mels _|
 B4 z2 | (B/^c/) (d/c/) (B/c/) (^A/c/) (B/c/) (A/c/) | B2 F2 B B | A B B2 A2 | D4 z2 | B3 c ^c d | %18
w: free.|Each _ a _ lit- * tle _ bit _ a- *|fraid is. Won- d'ring|what the world can|be?|Is it but a|
!>(! g f e2!>)! d2 | B3 B c d | B4 z2 |!f! B3!<(! c ^c d!<)! |!>(! g f e2!>)! d2 |!p! d3 F ^c ^A | %24
w: world of trou- ble|Sad- ness set to|song?|Is its beau- ty|but a bub- ble|Bound to break ere|
 B4 z2 |!f! e d c B ^A B | d2 c4 | c B E2 B2 | A4 z2 | d c B A ^G A | c2 B4 | A3 d A e | A4 z2 | %33
w: long?|Are its pa- la- ces and|plea- sures|Fan- ta- sies that|fade?|And the glo- ry of its|trea- sures|Shad- ow of a|shade?|
 A A d ^c B ^A | (^c2"^dim." B2) _B2 | (A2 F) D ^C E | D4 z2 |!p! D3 D D D | D4 z2 | %39
w: And the glo- ry of its|trea- * sures|Shad- * ow of a|shade?|Shad- ow of a|shade?|
!f! (B/d/) (g/d/) (B/c/) (A/c/) (B/c/) (A/c/) | B2 d4 | (B/d/) (g/d/) (B/c/) (A/c/) (B/c/) (A/c/) | %42
w: School- * girls _ we _ eigh- * teen _ and _|un- der,|From _ scho- * las- * tic _ tram- * mels _|
 (B2 d2) G G | e2 e2!<(! (3(de) =f!<)! |!>(! =f2 e2!>)! z E | c2 c2!<(! (3(Bc) d!<)! | %46
w: free, _ And we|won- der, how _ we|won- der! We|won- der, how _ we|
!>(! d2 c2!>)! B A | d3"^dim." B A G | D4 G F | (F2 E2) z!p! E | F4- F G | G6 | z6 | z6 |] %54
w: won- der! What on|earth the world can|be! What on|earth _ the|world _ can|be!|||
V:2
 z6 | z6 | z6 | z6 | z6 | z6 | z6 | z6 | z6 | (G/A/) (B/A/) (G/A/) (F/A/) (G/A/) (F/A/) | G2 D4 | %11
w: |||||||||Comes _ a _ train _ of _ lit- * tle _|la- dies|
 (G/A/) (B/A/) (G/A/) (F/A/) (G/A/) (F/A/) | G4 z2 | (D/E/) (F/E/) (D/E/) (^C/E/) (D/E/) (C/E/) | %14
w: From _ scho- * las- * tic _ tram- * mels _|free.|Each _ a _ lit- * tle _ bit _ a- *|
 D2 D2 D D | ^C D G2 C2 | D4 z2 | G3 A ^A B |!>(! e d c2!>)! B2 | G3 D F D | G4 z2 | %21
w: fraid is. Won- d'ring|what the world can|be?|Is it but a|world of trou- ble|Sad- ness set to|song?|
!f! G3!<(! A ^A B!<)! |!>(! e d c2!>)! B2 |!p! B3 F E F | D4 z2 | z6 | z2 z2!f! E E | %27
w: Is its beau- ty|but a bub- ble|Bound to break ere|long?||Are its|
 =F D C A, ^G, D | (CE A2) z2 | z6 | D D G F G E | (FD) A,2 G G | F D (A,2 A2) | A F E E D ^C | %34
w: plea- sures Fan- ta- sies that|fade? _ _||And the glo- ry of its|trea- * sures Shad- ow|of a shade? _|And the glo- ry of its|
 E2"^dim." D4 | ((A2 F)) D ^C E | D4 z2 | z6 | z6 |!f! (G/A/) (B/A/) (G/A/) (F/A/) (G/A/) (F/A/) | %40
w: trea- sures|Shad- * ow of a|shade?|||School- * girls _ we _ eigh- * teen _ and _|
 G2 D4 | (G/A/) (B/A/) (G/A/) (F/A/) (G/A/) (F/A/) | (G2 B2) G G | c2 c2!<(! (3(Bc) d!<)! | %44
w: un- der,|From _ scho- * las- * tic _ tram- * mels _|free, _ And we|won- der, how _ we|
!>(! d2 c2!>)! z E | A2 A2!<(! (3(^GA) B!<)! |!>(! B2 A2!>)! B A | d3"^dim." B A G | D4 G F | %49
w: won- der! We|won- der, how _ we|won- der! What on|earth the world can|be! What on|
 (F2 E2) z!p! E | F4- F G | G6 | z6 | z6 |] %54
w: earth _ the|world _ can|be!|||
V:3
!p! D/ z/4 (E/4^C/) z/4 (E/4 D/) z/4 (E/4C/) z/4 (E/4 D/) z/4 (E/4C/) z/4 (E/4 | %1
 D/) z/4 (F/4A/) z/4 (d/4 f/) z/4 (d/4a/) z/4 (f/4 d/) z/4 (A/4F/) z/4 (D/4 | %2
 E/) z/4 (F/4^D/) z/4 (F/4 E/) z/4 (F/4D/) z/4 (F/4 E/) z/4 (F/4D/) z/4 (F/4 | %3
 E/) z/4 (G/4^c/) z/4 (e/4 g/) z/4 (e/4_b/) z/4 (g/4 e/) z/4 (c/4G/) z/4 (E/4 | %4
"_cresc." F/) z/4 (G/4^E/) z/4 (G/4 F/) z/4 (A/4=c/) z/4 (f/4 G/) z/4 (B/4d/) z/4 (g/4 | %5
 A/) z/4 (B/4^G/) z/4 (B/4 A/) z/4 (c/4f/) z/4 (a/4!<(! B/) z/4 (d/4=g/) z/4 (b/4!<)! | %6
 c'/) z/4 (d'/4"_dim."c'/) z/4 (b/4 a/) z/4 (b/4a/) z/4 (g/4 f/) z/4 (g/4f/) z/4 (e/4 | %7
 d/) z/4 (e/4d/) z/4 (c/4 B/) z/4 (c/4B/) z/4 (A/4 G/) z/4 (A/4F/) z/4 (A/4 | %8
!p! [B,G]/) z/4 (D/4[Bd]/) z/4 (D/4 [GB]/) z/4 (D/4[Bd]/) z/4 (D/4 [GB]/) z/4 (D/4[Bd]/) z/4 (D/4 | %9
 [GB]/) z/4 (D/4d/) z/4 (D/4 [GB]/) z/4 (D/4[FA]/) z/4 (D/4 [GB]/) z/4 (D/4[FA]/) z/4 (D/4 | %10
 [GB]/) z/4 (D/4[Bd]/) z/4 (D/4 [GB]/) z/4 (D/4[Bd]/) z/4 (D/4 [FA]/) z/4 (D/4[Fd]/) z/4 (D/4 | %11
 [GB]/) z/4 (D/4[Bd]/) z/4 (D/4 [GB]/) z/4 (D/4[FA]/) z/4 (D/4 [GB]/) z/4 (D/4[FA]/) z/4 (D/4 | %12
 [GB]/) z/4 (D/4[Bd]/) z/4 (D/4 [GB]/) z/4 (D/4[Bd]/) z/4 (D/4 [GB]/) z/4 (D/4[Bd]/) z/4 (D/4 | %13
 B/) z/4 (F/4d/) z/4 (F/4 [DB]/) z/4 (F/4[^C^A]/) z/4 (F/4 [DB]/) z/4 (F/4[CA]/) z/4 (F/4 | %14
 [DB]/) z/4 (F/4[DB]/) z/4 (F/4 D/) z/4 (F/4[DB]/) z/4 (F/4 D/) z/4 (F/4[DB]/) z/4 (F/4 | %15
 [^CE]/) z/4 (C/4[DF]/) z/4 (A,/4 [CG]/) z/4 (A,/4[CG]/) z/4 (A,/4 [CE]/) z/4 (A,/4[CE]/) z/4 (A,/4 | %16
 [DF]/) z/4 (A/4d/) z/4 (f/4!<(! a/) z/4 (f/4=c'/) z/4 (a/4!<)! f/) z/4 (d/4c/) z/4 (A/4 | %17
 G/) z/4 (G/4g/) z/4 (G/4 g/) z/4 (G/4g/) z/4 (G/4 g/) z/4 (G/4g/) z/4 (G/4 | %18
 g/) z/4 (G/4g/) z/4 (G/4 g/) z/4 (G/4g/) z/4 (G/4 g/) z/4 (G/4g/) z/4 (G/4 | %19
 B/) z/4 (D/4G/) z/4 (D/4 B/) z/4 (D/4G/) z/4 (D/4 F/) z/4 (D/4A/) z/4 (D/4 | %20
 G/) z/4 (B/4d/) z/4 (B/4 g/) z/4 (d/4b/) z/4 (a/4 g/) z/4 (d/4B/) z/4 (A/4 | %21
 G/) z/4 (G/4g/) z/4 (G/4 g/) z/4 (G/4g/) z/4 (G/4 g/) z/4 (G/4g/) z/4 (G/4 | %22
 g/) z/4 (G/4g/) z/4 (G/4 g/) z/4 (G/4g/) z/4 (G/4 g/) z/4 (G/4g/) z/4 (B/4 | %23
 d/) z/4 (D/4F/) z/4 (F/4 B/) z/4 (F/4d/) z/4 (F/4 [E^A]/) z/4 (F/4[E^c]/) z/4 (F/4 | %24
 [DB]/) z/4 (d/4f/) z/4 (d/4 b/) z/4 (f/4d'/) z/4 (^c'/4 b/) z/4 (f/4d/) z/4 (B/4 | %25
 D/) z/4 (E/4B/) z/4 (E/4 D/) z/4 (E/4B/) z/4 (E/4 D/) z/4 (E/4^G/) z/4 (E/4 | %26
 C/) z/4 (E/4A/) z/4 (E/4 c/) z/4 (E/4A/) z/4 (E/4 c/) z/4 (E/4A/) z/4 (E/4 | %27
 =F/) z/4 (E/4F/) z/4 (D/4 E/) z/4 (^D/4E/) z/4 (C/4 =D/) z/4 (^C/4D/) z/4 (B,/4 | %28
!<(! C/) z/4 (A/4c/) z/4 (e/4 a/) z/4!<)! (e/4c'/) z/4 (a/4 e/)!>(! z/4 (c/4B/) z/4 (A/4!>)! | %29
 C/) z/4 (D/4A/) z/4 (D/4 C/) z/4 (D/4A/) z/4 (D/4 C/) z/4 (D/4F/) z/4 (D/4 | %30
 B,/) z/4 (D/4G/) z/4 (D/4 B/) z/4 (D/4G/) z/4 (D/4 B/) z/4 (D/4G/) z/4 (D/4 | %31
 F/) z/4 (A,/4[FA]/) z/4 (A,/4 [DF]/) z/4 (A,/4[FA]/) z/4 (A,/4 [^CG]/) z/4 (A,/4A/) z/4 (A/4 | %32
 f/a/d'/a/ f/g/e/g/ f/g/e/^c/) | d z d^c B^A | ^c2"_dim." B2 _B2 | %35
 [^FA]/ z/4 (A,/4F/) z/4 (D/4 A) z [A,^C] z | %36
!p! D/ z/4 (F/4A/) z/4 (F/4 d/) z/4 (A/4f/) z/4 (d/4 a/) z/4 (f/4d'/) z/4"_dim." (d/4 | %37
 =c'/) z/4 (d'/4b/) z/4 (c'/4 a/) z/4 (b/4g/) z/4 (a/4 f/) z/4 (g/4e/) z/4 (f/4 | %38
 d/) z/4 (e/4c/) z/4 (d/4 B/) z/4 (c/4A/) z/4 (B/4 G/) z/4 (A/4F/) z/4 (A/4 | %39
!p! [B,G]/) z/4 (D/4[Bd]/) z/4 (D/4 [GB]/) z/4 (D/4[FA]/) z/4 (D/4 [GB]/) z/4 (D/4[FA]/) z/4 (D/4 | %40
 [GB]/) z/4 (D/4[Bd]/) z/4 (D/4 [GB]/) z/4 (D/4[Bd]/) z/4 (D/4 [FA]/) z/4 (D/4[Fd]/) z/4 (D/4 | %41
 [GB]/) z/4 (D/4[Bd]/) z/4 (D/4 [GB]/) z/4 (D/4[FA]/) z/4 (D/4 [GB]/) z/4 (D/4[FA]/) z/4 (D/4 | %42
 [GB]/) z/4 (D/4[Bd]/) z/4 (D/4 [GB]/) z/4 (D/4[Bd]/) z/4 (D/4 [=FB]/) z/4 (B,/4[FG]/) z/4 (B,/4 | %43
 [CEG]/) z/4 (G/4c/) z/4 (G/4 e/) z/4 (c/4G/) z/4 (E/4 G)[DG] | %44
 z/ z/4 (G/4[=FA]/) z/4 (B/4 [Ec]/) z/4 (B/4c/) z/4 (G/4 [DE]/) z/4 (F/4E/) z/4 (D/4 | %45
 C/) z/4 (E/4A/) z/4 (E/4 c/) z/4 (A/4E/) z/4 (C/4 E)[B,E] | %46
 z/ z/4!mp! (^G/4B/) z/4 (G/4 [CEA]/) z/4 (E/4[Ac]/) z/4 (E/4 [D=GB]/) z/4 (E/4A/) z/4 (E/4 | %47
 [CA]/) z/4 (D/4[CA]/) z/4 (D/4 [B,B]/) z/4 (D/4[GB]/) z/4"^dim." (D/4 [GB]/) z/4 (D/4[GB]/) z/4 (D/4 | %48
 [Fc]/) z/4 (D/4[Fc]/) z/4 (D/4 [Gd]/) z/4 (D/4[GB]/) z/4 (D/4 G)[DF] | (F2 E) z!p! (CE) | F4- FG | %51
 [B,DG]2!p! ([GB]/[Ad]/[Bg]/[Ad]/ B/c/)(A/c/) | (B/c/)"_dim."(A/B/) (G/A/)(F/A/) (G/A/)(F/A/) | %53
!pp! !fermata![B,DG]6 |] %54
V:4
 [D,F,A,][D,G,_B,] [D,F,A,][D,G,B,] [D,F,A,][D,G,B,] | %1
 [D,F,A,][D,F,A,] [D,F,A,][D,F,A,] [D,F,A,][D,F,A,] | %2
 [D,G,^C][D,F,^B,] [D,G,C][D,F,^B,] [D,G,C][D,F,^B,] | %3
 [D,G,^C][D,G,C] [D,G,C][D,G,C] [D,G,C][D,G,C] | [D,A,=C][D,^G,B,] [D,A,C][D,A,C] [D,B,D][D,B,D] | %5
 [D,F,C][D,^E,B,] [D,F,C][D,F,C] [D,G,B,][D,G,B,] | %6
 [D,F,CD][K:treble] .[df] .[ce].[Bd] .[Ac].[GB] | .[FA].[EG] .[DF].[CE][K:bass] .[B,D].[CD] | %8
 .G,,.D, .G,,.D, .G,,.D, | G,,D, G,,D, G,,D, | G,,D, G,,D, G,,D, | G,,D, G,,D, G,,D, | %12
 G,,D, G,,D, G,,D, | F,,F, F,,F, F,,F, | B,,F, B,,F, ^G,,F, | (G,F, E,2) G,2 | %16
 [D,F,](A, [DF]) z z2 | B,3 C ^CD | [EG][DF] [CE]2 [B,D]2 | [D,,D,][D,B,] z [D,B,] [D,C][D,F,C] | %20
 [G,B,][G,B,D] [G,,G,] z z2 | B,3 C ^CD | [EG][DF] [CE]2 [B,D]2 | [F,,F,][F,B,] [F,B,D]F, F,,F, | %24
 B,,[F,B,D] B,, z z2 | ^G,,E, G,,E, E,,E, | A,,E, A,,E, A,A,, | %27
 D,,[D,=F,B,] E,,[E,A,C] E,,[E,^G,B,] | A,,[E,A,C] [A,CE] z z2 | F,,D, F,,D, D,,D, | %30
 G,,D, G,B, E,B, | A,,2 A,,2 A,,2 | A,,[F,A,D] [A,DF][A,^CE] [A,DF][G,A,CE] | [F,A,D]A, ^A,2 B,^C | %34
 (^A,2 B,2) [^G,,=F,]2 | [A,,F,]4 [A,,G,] z | [D,F,A,]4 z [D,,D,] | %37
[K:treble] [eg][df] [ce][Bd] [Ac][GB] | [FA][EG] [DF][CE][K:bass] [B,D][CD] | G,,D, G,,D, G,,D, | %40
 G,,D, G,,D, G,,D, | G,,D, G,,D, G,,D, | G,,D, G,,D, G,,G, | C,G, C,[G,C] C,[G,B,] | %44
 z [G,B,] [G,C]G, ^G,G, | A,,[E,A,] A,,[E,A,] A,,[E,^G,] | z ^G, A,A,, B,,C, | %47
 [F,,D,][F,,D,] [G,,D,][G,,D,] [G,,D,][G,,D,] | [A,,D,][A,,D,] [B,,D,][B,,D,] [B,,D,][B,,G,] | %49
 [C,G,]2- [C,G,] z [A,,A,]2 | D,6 | G,,2 .[G,D].[G,D] .[G,D].[G,D] | %52
 .[G,D].[G,,D,] .[G,,D,].[G,,D,] .[G,,D,].[G,,D,] | !fermata![G,,D,]6 |] %54
V:5
 x6 | x6 | x6 | x6 | x6 | x6 | x[K:treble] x5 | x4[K:bass] x2 | x6 | x6 | x6 | x6 | x6 | x6 | x6 | %15
 A,,A,, A,,2 A,,A,, | x6 | G,G,, G,[G,A,] [G,^A,][G,B,] | G,G, G,G, G,G, | x6 | x6 | %21
 G,G,, G,[G,A,] [G,^A,][G,B,] | G,G, G,G, G,G, | x6 | x6 | x6 | x6 | x6 | x6 | x6 | x6 | x6 | x6 | %33
 x2 F,,2 F,2 | G,4 x2 | x6 | x6 |[K:treble] x6 | x4[K:bass] x2 | x6 | x6 | x6 | x6 | x6 | %44
 C,4 B,,2 | x6 | A,,3 x3 | x6 | x6 | x6 | x6 | x6 | x6 | x6 |] %54
V:6
 x6 | x6 | x6 | x6 | x6 | x6 | x6 | x6 | x6 | x6 | x6 | x6 | x6 | x6 | x6 | x6 | x6 | x6 | x6 | %19
 x6 | x6 | x6 | x6 | x6 | x6 | x6 | x6 | x6 | x6 | x6 | x6 | x6 | x6 | %33
 d/ z/4 A/4F/ z/4 A/4 E/ z/4 F/4E/ z/4 F/4 D/ z/4 F/4^A/ z/4 E/4 | %34
 E/ z/4 G/4E/ z/4 G/4 D/ z/4 G/4D/ z/4 G/4 D/ z/4 =F/4D/ z/4 F/4 | x6 | x6 | x6 | x6 | x6 | x6 | %41
 x6 | x6 | x6 | x6 | x6 | [D=F]2 x4 | x6 | x6 | C2- C x C2 | [CD]6 | x4 GF | %52
 G[CF] [B,D][A,D] [B,D][A,D] | x6 |] %54

